X: 113
T: Mundesse
M:4/4
L:1/8
Q:160
S:Playford
O:Manuscript
N: 7 parts
A:English
K:G
G2 GG G2 A2|B3 A G2 d2|c3 B ABcd|B3 A G2 G2|A3 G A2 B2|c3>d c2 B2|A2 G2
G2 F2|G6:|
|: G3 A BABc|d3 e d2 ef|g2 f2 edef|d6 d2|G3 A BABc|d3 e d2 ef|g2 f2 edef|d6
|| f2 |g2 f2 g2 e2|d6 ef|g2 f2 g2 e2|d6 e2| f2 g2 f2 g2| d6 c2| B2 AA GFGA| G6||
G2|B3 c d2 B2|e3 d c2 B2|A2 G2 G2 F2|G6 G2|B3 c d2 B2|e3 d c2 B2|A2 G2 G2 F2|G6:|

